src/images/single-assets/ADX.svg

<svg xmlns="http://www.w3.org/2000/svg" width="96" height="96" fill="none" viewBox="0 0 96 96"><circle cx="48" cy="48" r="48" fill="#fff"/><g clip-path="url(#clip0)"><path fill="#1B75BC" d="M34.1542 70.6703L48.4001 56.4254L62.645 70.6703L71.1146 62.2006L56.8697 47.9558L71.1146 33.7109L62.645 25.2402L48.4001 39.4851L34.1542 25.2402L25.6846 33.7109L39.9295 47.9558L25.6846 62.2006L34.1542 70.6703Z"/><path fill="#3C3C3B" d="M43.4537 15.9463L35.1348 24.2653L42.1427 31.2732L48.4001 24.9406L54.6564 31.2732L61.6653 24.2653L53.3464 15.9463L48.4001 11L43.4537 15.9463Z"/><path fill="#3C3C3B" d="M43.4537 80.054L35.1348 71.735L42.1427 64.7271L48.4001 71.0588L54.6564 64.7271L61.6653 71.735L53.3464 80.054L48.4001 85.0003L43.4537 80.054Z"/></g><defs><clipPath id="clip0"><rect width="74" height="74" fill="#fff" transform="translate(11 11)"/></clipPath></defs></svg>

<svg xmlns="http://www.w3.org/2000/svg" width="96" height="96" fill="none"><circle cx="48" cy="48" r="48" fill="#fff"/><g clip-path="url(#prefix__clip0)"><path fill="#1B75BC" d="M34.154 70.67L48.4 56.425 62.645 70.67l8.47-8.47L56.87 47.957 71.115 33.71l-8.47-8.47L48.4 39.484 34.154 25.24l-8.47 8.47L39.93 47.957 25.685 62.2l8.47 8.47z"/><path fill="#3C3C3B" d="M43.454 15.946l-8.32 8.32 7.009 7.007 6.257-6.332 6.256 6.332 7.01-7.008-8.32-8.319L48.4 11l-4.946 4.946zM43.454 80.054l-8.32-8.319 7.009-7.008L48.4 71.06l6.256-6.332 7.01 7.008-8.32 8.319L48.4 85l-4.946-4.946z"/></g><defs><clipPath id="prefix__clip0"><path fill="#fff" transform="translate(11 11)" d="M0 0h74v74H0z"/></clipPath></defs></svg>
